dist/static/img/services/03.svg

<svg width="48" height="48" viewBox="0 0 48 48" fill="none" xmlns="http://www.w3.org/2000/svg">
<path d="M42.325 18.9031L42.3173 18.8716C42.1929 18.369 41.6847 18.0625 41.1822 18.1868C40.6797 18.3112 40.373 18.8194 40.4974 19.3221L40.503 19.3448C40.607 19.7738 40.9905 20.0616 41.4133 20.0616C41.4864 20.0616 41.5607 20.0529 41.6349 20.0349C42.1379 19.9129 42.447 19.4061 42.325 18.9031Z" fill="white"/>
<path d="M17.502 30.5862C15.1713 29.1799 13.7799 26.7175 13.7799 23.9993C13.7799 23.1591 13.9144 22.3336 14.1796 21.5457C14.3448 21.0551 14.0809 20.5233 13.5903 20.3582C13.0997 20.1932 12.5681 20.4571 12.4029 20.9477C12.0727 21.9287 11.9053 22.9554 11.9053 23.9994C11.9053 27.3803 13.6355 30.4428 16.5335 32.1916C16.6851 32.283 16.852 32.3265 17.0169 32.3265C17.3345 32.3265 17.6443 32.1648 17.8203 31.8731C18.0878 31.4298 17.9453 30.8537 17.502 30.5862Z" fill="white"/>
<path d="M28.0203 17.0365C26.2403 15.3606 23.9128 14.4375 21.4668 14.4375C20.3213 14.4375 19.2004 14.6383 18.1354 15.0341C17.6502 15.2146 17.403 15.7541 17.5834 16.2395C17.7638 16.7248 18.3033 16.9719 18.7888 16.7915C19.6441 16.4735 20.5451 16.3122 21.4669 16.3122C23.4333 16.3122 25.3043 17.0542 26.7351 18.4014C26.9161 18.572 27.147 18.6564 27.3775 18.6564C27.6268 18.6564 27.8757 18.5575 28.0602 18.3616C28.415 17.9847 28.3971 17.3914 28.0203 17.0365Z" fill="white"/>
<path d="M47.0626 24.2816H40.0102V22.3423C40.0102 21.3996 39.2432 20.6327 38.3005 20.6327H37.0421C36.3977 17.6373 34.9135 14.9092 32.7352 12.7308C29.039 9.03456 23.7577 7.38615 18.6078 8.32056C18.0984 8.413 17.7604 8.90087 17.8528 9.41031C17.9452 9.91975 18.4332 10.2574 18.9426 10.1653C23.4875 9.34047 28.1482 10.7951 31.4095 14.0567C33.2357 15.8828 34.5094 18.1461 35.1196 20.6327H30.0022C29.0595 20.6327 28.2925 21.3997 28.2925 22.3424V24.2817H21.2401C20.7224 24.2817 20.3027 24.7015 20.3027 25.2191V30.9696C20.3027 31.8496 20.6453 32.6505 21.2034 33.2477V38.0583C17.5464 37.9959 14.1312 36.5492 11.5241 33.9421C8.17772 30.5957 6.74409 25.8254 7.68919 21.1814C7.79241 20.6741 7.46484 20.1791 6.95756 20.0759C6.45009 19.9726 5.95528 20.3002 5.85206 20.8075C4.78125 26.0696 6.40594 31.4752 10.1983 35.2677C13.1164 38.1857 17.0907 39.8609 21.2033 39.9317V43.3285C21.2033 43.4164 21.2092 43.5029 21.2197 43.588C10.5302 43.4551 1.87472 34.7197 1.87472 23.9993C1.87472 20.6471 2.72738 17.3703 4.34691 14.4665L7.50975 17.6444C7.68572 17.8212 7.92488 17.9206 8.17416 17.9206H14.0701L19.8501 23.7005C20.0332 23.8836 20.2731 23.9751 20.5129 23.9751C20.7528 23.9751 20.9928 23.8836 21.1757 23.7005C21.5418 23.3344 21.5418 22.7409 21.1757 22.3747L15.3956 16.5947V10.6988C15.3956 10.4498 15.2965 10.211 15.1202 10.0352L11.9485 6.87128C14.8486 5.25718 18.1199 4.40743 21.4664 4.40743C29.071 4.40743 36.052 8.8674 39.2516 15.7698C39.4102 16.112 39.7489 16.3132 40.1027 16.3132C40.2347 16.3132 40.3688 16.2852 40.4963 16.226C40.966 16.0082 41.1703 15.451 40.9526 14.9813C39.254 11.3168 36.5632 8.21153 33.1708 6.00128C29.6883 3.73206 25.6409 2.53271 21.4665 2.53271C17.6207 2.53271 13.8645 3.55731 10.5729 5.49906L7.87509 2.8075C7.60669 2.53984 7.20375 2.45996 6.85378 2.60528C6.50372 2.7505 6.27572 3.09212 6.27572 3.47106V8.78359H0.946781C0.567937 8.78359 0.2265 9.0115 0.0811875 9.36118C-0.064125 9.71097 0.0151875 10.1137 0.282375 10.3822L2.97609 13.0887C1.02797 16.3847 0 20.1467 0 23.9992C0 29.7332 2.23294 35.124 6.28744 39.1785C10.3419 43.2331 15.7327 45.4659 21.4667 45.4659L44.9607 45.4669C46.1399 45.4669 47.0993 44.5077 47.0993 43.3284V33.248C47.6805 32.6274 48 31.8224 48 30.9678V25.2189C48 24.7013 47.5803 24.2816 47.0626 24.2816ZM8.15044 5.73034L13.521 11.0876V14.7161L8.15044 9.33343V5.73034ZM6.82416 10.6585L12.1953 16.0454H8.56378L3.20231 10.6585H6.82416ZM30.1672 22.5075H38.1352V24.2816H30.1672V22.5075ZM45.2243 39.0918H39.0727C38.555 39.0918 38.1353 39.5117 38.1353 40.0292C38.1353 40.5468 38.555 40.9667 39.0727 40.9667H45.2243V43.3283C45.2243 43.4738 45.1061 43.5921 44.9607 43.5921H24.491C24.4842 43.592 24.4777 43.5911 24.471 43.5911H23.3317C23.191 43.5857 23.0781 43.4704 23.0781 43.3284V34.2603C23.2615 34.2917 23.4498 34.3089 23.642 34.3089H31.373C31.5392 35.6947 32.7214 36.7727 34.1512 36.7727C35.5833 36.7727 36.767 35.6913 36.9303 34.3024L44.6583 34.3073C44.659 34.3073 44.6597 34.3073 44.6604 34.3073C44.8514 34.3073 45.0397 34.2904 45.2243 34.2592V39.0918H45.2243ZM33.2272 33.9737V32.3258H35.0755V33.9737C35.0755 34.4833 34.6609 34.8978 34.1513 34.8978C33.6418 34.8978 33.2272 34.4833 33.2272 33.9737ZM46.1252 30.9678C46.1252 31.3593 45.9728 31.7272 45.6958 32.0039C45.4192 32.2803 45.0516 32.4326 44.6604 32.4326C44.6602 32.4326 44.6599 32.4326 44.6595 32.4326L36.9502 32.4277V31.5686C36.9502 30.9524 36.449 30.451 35.8327 30.451H32.4697C31.8535 30.451 31.3522 30.9523 31.3522 31.5686V32.4341H23.642C22.8343 32.4341 22.1773 31.777 22.1773 30.9694V26.1564H46.1251V30.9678H46.1252Z" fill="white"/>
<path d="M35.1421 39.3665C34.9677 39.1921 34.7259 39.0918 34.4794 39.0918C34.2319 39.0918 33.9911 39.192 33.8157 39.3665C33.6414 39.5409 33.542 39.7827 33.542 40.0292C33.542 40.2758 33.6414 40.5175 33.8157 40.6918C33.9911 40.8662 34.232 40.9666 34.4794 40.9666C34.726 40.9666 34.9669 40.8663 35.1421 40.6918C35.3165 40.5175 35.4168 40.2757 35.4168 40.0292C35.4168 39.7827 35.3165 39.5409 35.1421 39.3665Z" fill="white"/>
</svg>

<svg width="48" height="48" viewBox="0 0 48 48" fill="none" xmlns="http://www.w3.org/2000/svg"><path d="M42.325 18.903l-.008-.031a.937.937 0 10-1.82.45l.006.023a.938.938 0 101.822-.442zM17.502 30.586A7.636 7.636 0 0113.78 24c0-.84.134-1.665.4-2.453a.937.937 0 10-1.777-.598A9.547 9.547 0 0011.905 24a9.496 9.496 0 004.629 8.193.937.937 0 10.968-1.605zM28.02 17.037a9.525 9.525 0 00-6.553-2.6 9.528 9.528 0 00-3.332.597.938.938 0 00.654 1.757 7.659 7.659 0 012.678-.479c1.966 0 3.837.742 5.268 2.09a.933.933 0 001.325-.04.938.938 0 00-.04-1.325z" fill="#fff"/><path d="M47.063 24.282H40.01v-1.94c0-.942-.767-1.71-1.71-1.71h-1.258a15.86 15.86 0 00-4.307-7.901 15.953 15.953 0 00-14.127-4.41.937.937 0 00.335 1.844c4.544-.825 9.205.63 12.466 3.892a13.993 13.993 0 013.71 6.576h-5.117c-.942 0-1.71.767-1.71 1.71v1.939H21.24a.937.937 0 00-.937.937v5.75c0 .88.342 1.681.9 2.279v4.81c-3.657-.062-7.072-1.509-9.679-4.116a14.04 14.04 0 01-3.835-12.76.937.937 0 00-1.837-.374 15.911 15.911 0 004.346 14.46 16.002 16.002 0 0011.005 4.664v3.396c0 .088.006.175.017.26-10.69-.133-19.345-8.868-19.345-19.589 0-3.352.852-6.629 2.472-9.532l3.163 3.177a.938.938 0 00.664.277h5.896l5.78 5.78a.934.934 0 001.326 0 .937.937 0 000-1.326l-5.78-5.78v-5.896c0-.25-.1-.488-.276-.664l-3.17-3.164a19.556 19.556 0 019.517-2.464c7.605 0 14.586 4.46 17.786 11.363a.937.937 0 101.7-.789 21.501 21.501 0 00-7.781-8.98 21.384 21.384 0 00-11.704-3.468 21.422 21.422 0 00-10.894 2.966L7.875 2.808a.937.937 0 00-1.6.663v5.313H.948a.937.937 0 00-.665 1.598l2.694 2.707A21.423 21.423 0 000 23.999a21.326 21.326 0 006.287 15.18 21.326 21.326 0 0015.18 6.287H44.96a2.14 2.14 0 002.138-2.138v-10.08c.582-.62.901-1.426.901-2.28v-5.75a.937.937 0 00-.937-.936zM8.15 5.73l5.371 5.358v3.628l-5.37-5.383V5.73zm-1.326 4.928l5.371 5.387H8.564l-5.362-5.387h3.622zm23.343 11.85h7.968v1.774h-7.968v-1.774zm15.057 16.584h-6.151a.938.938 0 000 1.875h6.151v2.361a.264.264 0 01-.263.264H23.33a.263.263 0 01-.253-.264V34.26c.184.032.372.049.564.049h7.731a2.803 2.803 0 002.778 2.464 2.803 2.803 0 002.78-2.47l7.727.004h.002c.191 0 .38-.017.564-.048v4.833zm-11.997-5.118v-1.648h1.849v1.648a.925.925 0 01-1.849 0zm12.898-3.006c0 .391-.152.76-.43 1.036a1.455 1.455 0 01-1.035.429l-7.71-.005v-.86c0-.616-.501-1.117-1.117-1.117H32.47a1.12 1.12 0 00-1.118 1.118v.865h-7.71a1.466 1.466 0 01-1.465-1.465v-4.813h23.948v4.812z" fill="#fff"/><path d="M35.142 39.367a.944.944 0 00-.663-.275c-.247 0-.488.1-.663.275a.943.943 0 000 1.325.947.947 0 00.663.275c.247 0 .488-.1.663-.275a.944.944 0 00.275-.663c0-.246-.1-.488-.275-.663z" fill="#fff"/></svg>
